X: 492
T: THE LOVER'S DISCOURSE
B: O'Neill's 492
Z: 1999 by John Chambers <jc@trillian.mit.edu>
N: "Moderate"
N: Collected by "J.O'Neill"
N: 12 bars
M: C
L: 1/8
K:Am
cB \
| ABAG E2E^G | A2A2 A2cd | e2dc d2ec | G4 E2cd | e2dc d2ec |
| A>BAG E2E^G | A2A2 BcdB | c3B A2cB | ABAG EDE^G | A4 A2 |]


